X: 14891
T: Gatehouse Maid, The
R: reel
M: 4/4
K: Gmajor
|:G2 BG EFGE|FDFA dAFD|G2 BG EFGA|BGAF GEEF|
G2 BG EFGE|FDFA dAFD|G2 BG EFGA|BGAF GE E2:|
|:ge e2 Bege|fddc dfaf|eB B2 efge|afdf e3d|
eB B2 efge|fefg afdf|g3e f3d|egfd Be e2:|

